X: 13
T: The Laird O Cocpen with variations
R: jig
M: 6/8
L: 1/8
Z: 2010 John Chambers <jc:trillian.mit.edu>
B: 19th century tune book collected by W.A. Cocks.
F: http://www.asaplive.com/archive/browse_by_collection.asp
N: The name is usually "Cockpen", pronounced "co-pen".
K: Gm
D/=E/F/ |\
GAG B2c | AFF F2B/A/ | GAG a2a/g/ | fdd d2=e |\
fgf f=ed | cdB A2B/c/ |d_ed d2c | BGG G2 :|
|: B/c/ |\
dgg gab | aff f2g/a/ | dgg gag | fdd d2=e |\
fgf f=ed | cdB A2B/c/ | d_ed d2c | BGG G2 :|
|: F/=E/ |\
D[GB,][GB,] B[GB,][GB,] | D[FA,][FA,] A[FA,][FA,] | D[GB,][GB,] BAG | g^fg d2=e |\
fca fcB | AcB AGF | Ddc BAG | DG^F G2 :|
| g/a/ |\
bgg dgg | aff cff | bgg dgg | fdd d2f/g/ |\
aff cff | Aff FGA | d.e/.d/.c/.B/ .c.d/.c/.B/.A/ | BGG G2 :|
|: B,A, |\
G,B,D (GAB) | A,CF (A=Bc) | (G,B,D) (GBd) | {a}g^fg d2d/d/ |\
(dbd) (cac) | (Bg)B FGA |
({_e}dcB) {d}cBA |1 {c}BAG ({B}AGF) :|2 BGG G2 :||: g | gGg bag | fFf c'Ba |
gGg bag | ^fga d2=e/=f/ |\
gGg bag | .d/.=e/.f/.e/.d/.c/ FGA | GeG FdF | [DB,][EC][FA,] [G2B,2] :|


%%sep 5 1 500

